X: 9735
T: Deirdre's Fancy
R: slip jig
M: 9/8
K: Eminor
|:"Em"E2F G2A BGE|"D"D2E F2G AFD|"Em"E2F G2A BGE|"B"B=cB AGF "Em"E3:|
|:"Em"eBe e2f gfe|"D"dAd d2e fed|"Em"eBe e2f gfe|"D"d=cB AGF "Em"E3:|

